X: 1
T:March  " "
M:C|
L:1/8
Q:80
C:PM W.Ross/JHP
S:CAPTAIN NORMAN ORR-EWING
K:HP
|: {g}f3/4e/4|
{Gdc}d{g}f{AGAG}A{g}B3/4c/4|
{Gdc}d2{e}A{gf}g|  !
{fg}f3/2e/2{Gdc}d{g}f|
{gfg}f{g}e{A}e{g}f3/4e/4| |
{Gdc}d{g}f{AGAG}A{g}B3/4c/4|  !
{Gdc}d2{e}A3/2{gf}g/2|
{fg}f2{GdG}e3/2f/2|
{Gdc}d2{gdc}d:| |:  !
{gf}g|
{ag}a3/2f/2{Gdc}d{ag}a|
{fg}f{ag}a{Gdc}d{g}e/4f3/4|  !
{gf}g3/2e/2{gcd}c{gef}e|
{gBG}B{gef}e{AGAG}A|1 {g}f/4g3/4| |
|1 {ag}a3/2f/2{Gdc}d{ag}a|  !
{fg}f{ag}a{Gdc}d{gf}g|
{fg}f2{GdG}e3/2f/2|
{Gdc}d2{gdc}d:| |  !
|2 {g}f3/4e/4|
{Gdc}d{g}f{AGAG}A{g}B3/4c/4|
{Gdc}d2{e}A3/2{gf}g/2|  !
{fg}f2{GdG}e3/2f/2|
{Gdc}d2{gdc}d|] |:
{g}f3/4e/4|  !
{Gdc}d{e}A{gBd}B{e}G|
{g}A2{Gdc}d3/2B/2|
{GdG}A3/2B/2{Gdc}d{g}f|  !
{gfg}f{g}e{A}e{g}f3/4e/4| |
{Gdc}d{e}A{gBd}B{e}G|
{g}A2{Gdc}d{gf}g|  !
{fg}f2{GdG}e3/2f/2|
{Gdc}d2{gdc}d:| |:
{gf}g|  !
{fg}fa{fg}fd|
{g}A2{Gdc}d3/2B/2|
{GdG}A3/2B/2{Gdc}d{g}f|  !
{gfg}f{g}e{A}e{gf}g| |
{fg}fa{fg}fd|
{g}A2{Gdc}d{gf}g|  !
{fg}f2{GdG}e3/2f/2|
{Gdc}d2{gdc}d:|
